X: 5016
T: Brexit, The
R: waltz
M: 3/4
K: Eminor
e2^de fg|a6|g2fg bg|f2e2g2|e2^de fg|f6|^dB cB df|e6|
e2^de fg|a6|g2fg bg|f2e2g2|e2Be gb|a6|f2^df af|e6|
|:g2bg fg|e3 e ag|fe fd ec|B4 d2|g2bg fg|e2 e2 ag|fe fd ef|1 e4 gf:|2 e4 e^d||
|:e2de fd|c2B2A2|G2EF GA|F4 B2|e2de fd|c2B2A2|G2 FA BF|1 E4 e^d:|2 E6||

